X:811
T:Puddleglum's Misery
T:Tune
C:Puddleglum's Misery - composed by John Kirkpatrick - World Copyright © Squeezer Music.
C:www.johnkirkpatrick.co.uk
K:Am
M:2/2
L:1/8
P:A
"E7"E2e2 _e2d2|"Am"c>BA>B c2B>A|"E7"^G>EG>B e>BG>E|"Am"A>EA>c e>cA>c|
"E7"E2e2 _e2d2|"Am"c>BA>B c2B>A|"E7"^G>EG>B e>dc>B|"Am"A2A2 A4:|
P:B
|:"G"G2g2 ^f2=f2|"C"e>dc>d e2d>c|"G"B>GB>d g>dB>G|"C"c>Bc>d e>dc>A|
"G"G2g2 ^f2=f2|"C"e>dc>d e4|"E7"(3EFE ^D>E e>dc>B|"Am"A2A2 A4:|
T:Harmony
P:A
"E7"E2E2 ^F2^G3/2F//G//|"Am".A2z>B c2B>A|"E7".^G2z>A B2A>G|"Am".A2z>B c2B>A|
"E7"E2E2 ^F2^G3/2F//G//|"Am".A2z>B c2B>A|"E7".^G2z>A B2A>G|"Am".A2.c2 A4:|
P:B
|:"G"G2G2 A2B3/2A//B//|"C".c2z>d e2d>c|"G".B2z>c d2c>B|"C".c2z>d e2d>c|
"G"G2G2 A2B3/2A//B//|"C".c2z>d e2d>c|"E7".B2z>c d2c>B|"Am".A2.c2 A4:|

